Papirus/24x24/apps/vieb.svg

<svg width="24" height="24" version="1.1" xmlns="http://www.w3.org/2000/svg">
 <path d="m11.499695 1.500019c-0.550024 0-1.100416 0.2050106-1.5115731 0.6161574l-8.3719737 8.3729066c-0.82231375 0.822293-0.82114725 2.198408 0.0012 3.020702l8.3719737 8.372907c0.8223141 0.822294 2.1996551 0.82346 3.0219691 0.0012l8.371974-8.372906c0.822313-0.822294 0.822314-2.199587 0-3.021881l-8.371996-8.3729286c-0.411156-0.4111468-0.961549-0.6161574-1.511574-0.6161574z" style="opacity:.2"/>
 <path d="m11.499695 1.0000196c-0.550024 0-1.100416 0.2050106-1.5115731 0.6161574l-8.3719737 8.3729069c-0.82231375 0.8222931-0.82114725 2.1984081 0.0012 3.0207021l8.3719737 8.372906c0.8223141 0.822294 2.1996551 0.823461 3.0219691 0.0012l8.371974-8.372906c0.822313-0.822294 0.822314-2.199587 0-3.0218801l-8.371996-8.3729289c-0.411156-0.4111468-0.961549-0.6161574-1.511574-0.6161574z" style="fill:#a42a2a"/>
 <path d="m11.5 1.0000196c-0.550024 0-1.100561 0.2050636-1.5117176 0.6162104l-8.3720623 8.3730394c-0.473073 0.4730606-0.66434725 1.1280796-0.5927729 1.7568346 0.0534742-0.461878 0.2451516-0.909223 0.5927729-1.256835l8.3720623-8.3730394c0.4111566-0.4111468 0.9616936-0.6162104 1.5117176-0.6162104 0.550025 0 1.100561 0.2050636 1.511718 0.6162104l8.371085 8.3730394c0.3485 0.34849 0.540641 0.797376 0.59375 1.260741 0.07221-0.629984-0.119935-1.286938-0.59375-1.7607406l-8.371085-8.3730394c-0.411157-0.4111467-0.961693-0.6162104-1.511718-0.6162104z" style="fill:#ffffff;opacity:.2"/>
 <path d="m3.9998813 4.4999982c-0.5538685 0-0.9997625 0.445894-0.9997625 0.999762 0 0.553869 0.445894 0.999763 0.9997625 0.999763h-2.38e-4v11.997152c3.414e-4 1.765246 2.1208347 2.664257 3.3898197 1.437159l13.947859-13.497772c0.383668-0.139515 0.658047-0.503237 0.658047-0.936302 0-0.553868-0.445894-0.999762-0.999763-0.999762h-4.998812c-0.553869 0-0.999763 0.445894-0.999763 0.999762 0 0.414145 0.249948 0.767566 0.607278 0.919704l-7.605615 7.3595818v-7.2795228h-5.75e-4c0.553868 0 0.999762-0.445894 0.999762-0.999763 0-0.553868-0.445894-0.999762-0.999762-0.999762z" style="fill-rule:evenodd;opacity:.2"/>
 <path d="m3.9998813 3.9999988c-0.5538685 0-0.9997625 0.445894-0.9997625 0.999762 0 0.553869 0.445894 0.999763 0.9997625 0.999763h-2.38e-4v11.997151c3.414e-4 1.765246 2.1208347 2.664257 3.3898197 1.437159l13.947859-13.497771c0.383668-0.139515 0.658047-0.503237 0.658047-0.936302 0-0.553868-0.445894-0.999762-0.999763-0.999762h-4.998812c-0.553869 0-0.999763 0.445894-0.999763 0.999762 0 0.414145 0.249948 0.767566 0.607278 0.919704l-7.605615 7.3595812v-7.2795222h-5.75e-4c0.553868 0 0.999762-0.445894 0.999762-0.999763 0-0.553868-0.445894-0.999762-0.999762-0.999762z" style="fill-rule:evenodd;fill:#e4e4e4"/>
 <path d="m4 4c-0.5538685 0-1 0.446132-1 1 0 0.0891008 0.0291094 0.1678946 0.0507812 0.25 0.1126401-0.4288838 0.4840225-0.75 0.9492188-0.75h3.9980469c0.4651958 0 0.8365787 0.3211162 0.9492187 0.75 0.021672-0.082105 0.050781-0.1608992 0.050781-0.25 0-0.553868-0.446132-1-1-1zm11.996094 0c-0.553869 0-1 0.446132-1 1 0 0.1001059 0.01577 0.1960844 0.04297 0.2871094 0.099482-0.4476376 0.478578-0.7871094 0.95703-0.7871094h5c0.475581 0 0.852641 0.335722 0.955078 0.7792969 0.0262-0.089125 0.04492-0.1812696 0.04492-0.2792969 0-0.553868-0.446131-1-1-1zm-0.691406 2.2089844-7.3066411 7.0703126v0.5l7.6054691-7.3593751c-0.114803-0.0488787-0.210922-0.1251672-0.298828-0.2109375z" style="fill-rule:evenodd;fill:#ffffff;opacity:.2"/>
</svg>

<svg xmlns="http://www.w3.org/2000/svg" width="24" height="24" version="1">
 <path style="opacity:0.2" d="M 11.5,1.5 C 10.95,1.5 10.399,1.705 9.9881,2.1162 L 1.6161,10.489 C 0.79384,11.311 0.79501,12.687 1.6173,13.51 L 9.9893,21.883 C 10.812,22.705 12.189,22.706 13.011,21.884 L 21.383,13.511 C 22.206,12.689 22.206,11.311 21.383,10.489 L 13.011,2.1162 C 12.6,1.705 12.05,1.5 11.5,1.5 Z"/>
 <path style="fill:#a42a2a" d="M 11.5,1 C 10.95,1 10.399,1.205 9.9881,1.6162 L 1.6161,9.9891 C 0.79384,10.811 0.79501,12.187 1.6173,13.01 L 9.9893,21.383 C 10.812,22.205 12.189,22.206 13.011,21.384 L 21.383,13.011 C 22.206,12.189 22.206,10.811 21.383,9.9891 L 13.011,1.6162 C 12.6,1.205 12.05,1 11.5,1 Z"/>
 <path style="opacity:0.2;fill:#ffffff" d="M 11.5,1 C 10.95,1 10.399,1.2051 9.9883,1.6162 L 1.6162,9.9893 C 1.1431,10.462 0.95188,11.117 1.0234,11.746 1.0769,11.284 1.2686,10.837 1.6162,10.489 L 9.9883,2.1162 C 10.399,1.7051 10.95,1.5 11.5,1.5 12.05,1.5 12.601,1.7051 13.012,2.1162 L 21.383,10.489 C 21.731,10.838 21.923,11.287 21.977,11.75 22.049,11.12 21.857,10.463 21.383,9.9893 L 13.012,1.6162 C 12.601,1.2051 12.05,1 11.5,1 Z"/>
 <path style="opacity:0.2" d="M 3.9999,4.5002 C 3.446,4.5002 3.0001,4.9461 3.0001,5.5 3.0001,6.0538 3.446,6.4997 3.9999,6.4997 L 3.9996,18.5 C 4,20.265 6.167,21.158 7.39,19.935 L 21.337,6.5002 C 21.721,6.5002 22,5.9332 22,5.5002 22,4.9463 21.549,4.5002 20.996,4.5002 H 16 C 15.446,4.5002 15,4.9461 15,5.5 15,5.9141 15.234,6.4919 15.607,6.4919 L 8,13.779 V 6.4997 C 8.5539,6.4997 9,6.054 9,5.5002 9,4.9463 8.5539,4.5002 8,4.5002 Z"/>
 <path style="fill:#e4e4e4" d="M 3.9999,4 C 3.446,4 3.0001,4.4459 3.0001,4.9998 3.0001,5.5536 3.446,5.9995 3.9999,5.9995 L 3.9996,18 C 4,19.765 6.167,20.658 7.39,19.435 L 21.337,6 C 21.721,6 22,5.433 22,5 22,4.4461 21.549,4 20.996,4 H 16 C 15.446,4 15,4.4459 15,4.9998 15,5.4139 15.234,5.9917 15.607,5.9917 L 8,13.279 V 5.9995 C 8.5539,5.9995 9,5.5538 9,5 9,4.4461 8.5539,4 8,4 Z"/>
 <path style="fill:#ffffff;opacity:0.1" d="M 4 4 C 3.4461 4 3 4.4461 3 5 C 3 5.0891 3.0291 5.1679 3.0508 5.25 C 3.1634 4.8211 3.5348 4.5 4 4.5 L 8 4.5 C 8.4652 4.5 8.8365 4.8211 8.9492 5.25 C 8.9707 5.1683 9 5.0887 9 5 C 9 4.4461 8.5539 4 8 4 L 4 4 z M 16 4 C 15.446 4 15 4.4461 15 5 C 15 5.0949 15.016 5.1995 15.039 5.3027 C 15.133 4.8473 15.516 4.5 16 4.5 L 20.996 4.5 C 21.476 4.5 21.859 4.8435 21.957 5.2949 C 21.982 5.1955 22 5.094 22 5 C 22 4.4461 21.549 4 20.996 4 L 16 4 z M 15.283 6.3027 L 8 13.279 L 8 13.779 L 15.607 6.4922 C 15.479 6.4922 15.375 6.4094 15.283 6.3027 z"/>
</svg>
